X:1
T:Sub tuum presidium - l'Heritier
T:#
%%score { 1 | 2 } 3 { 4 | 5 } 6
L:1/8
Q:1/4=100
M:2/2
K:D
V:1 treble nm="Soprano I" snm="S"
V:2 treble 
V:3 treble-8 nm="Alto" snm="A"
V:4 treble-8 nm="Tenor I" snm="T"
V:5 treble-8 
V:6 bass nm="Bass" snm="B"
V:1
"^Jehan l'Héritier\n(1480-1552)" z8 | z8"^Sub tuum presidium" | E8 | B6 A2 | G2 (E2 G4- | %5
w: ||Sub|tu- um|pre- si\- *|
 G2 FE) F4 | G8 | z8 |[M:2/2] z8 | F8 | (A3 B) c4 | B8 | z8 | B8 | c4 (e4- | e2 dc) d4 | e4 c4 | %17
w: * * * di-|um|||con-|fu\- * gi-|mus,||san-|cta De\-|* * * i|ge- ni-|
 B8 | B4 A4 | F6 F2 | G4 A4 | E4 z4 | z4 z2 A2 | A4 B4 | E4 A4 | (A6 GF | GE e3 dcB) | c4 z4 | z8 | %29
w: trix,|san- cta|De- i|ge- ni-|trix,|san-|cta De-|i ge-|ni\- * *||trix,||
 z8 | z4 e4- | e2 d2 c2 A2 | (BAGF G2) G2 | E4 z4 | z8 | z8 | B8 | d8 | c6 B2 | (B6 AG) | A4 B4- | %41
w: |san\-|* cta De- i|ge\- * * * * ni-|trix,|||san-|cta|De- i|ge\- * *|ni- trix:|
 B4 z4 | z8 | z8 | z8 | z4 G4- | G2 F2 A4 | A4 B2 (GA) | (Bc d4 cB | A2 B4 A2) | B8 | z8 | %52
w: ||||no\-|* stras de-|pre- ca- ti\- *|o\- * * * *||nes||
 c4 (d4- | d2 c2) (B4 | A8 | d6 cB) | c4 A4- | A8 | z4 B4- | B2 B2 c4 | c4 (d4- | d2 cB) d2 (c2- | %62
w: ne de\-|* * spi\-|||ci- as,||ne|* de- spi-|ci- as,|* * * ne de\-|
 cB) B4 A2 | B4 z4 | z8 | z4 z2 A2- | A2 G2 A2 (B2- | BA A4 ^G2) | A8 | z4 z2 A2- | A2 ^G2 A2 A2 | %71
w: * * spi- ci-|as,||ne|* de- spi- ci\-||as,|ne|* de- spi- ci-|
 F4 z4 | A4 B4- | B2 B2 A2 A2 | F2 F2 G4 | F4 z4 | z8 | z8 | B4 c4- | c2 A2 B2 B2 | %80
w: as|in ne\-|* ces- si- ta-|ti- bus no-|stris,|||in ne\-|* ces- si- ta-|
 (A3 B) c2 (d2- | d2 c2) d4- | d4 z2 A2 | B2 A2 d4- | d2 c2 B2 B2 | A8 | z2 A2 A2 G2 | A3 G F2 F2 | %88
w: ti\- * bus no\-|* * stris,|* sed|a pe- ri\-|* cu- lis cun-|ctis,|sed a pe-|ri- cu- lis cun-|
 E4 z4 | z8 | E4 F4 | A6 G2 | (F3 E/F/) G2 A2 | F8 | E2 G2 F2 (E2- | (EFGA) B2 (c2- | %96
w: ctis,||sed a|pe- ri-|cu\- * * lis cun-|ctis,|sed a pe- ri\-|* * * * cu- lis|
 cB) (A4 ^G2) | A8 | z8 | E8 | G4 F4 | E8 | z8 | (E6 F2) | G2 (A4 G2) | A8 | A8 | A4 z2 A2 | %108
w: * * cun\- *|ctis,||li-|be- ra|nos,||li\- *|be- ra *|nos|sem-|per, Vir-|
 A6 G2 | F4 E4 | G8 | z8 | z4 z2 B2 | c4 d4- | d2 c2 B2 A2 | G2 FE F4) | E4 z4 | %117
w: go be-|ne- di-|cta,||sem-|per, Vir\-|* go be- ne-|di\- * * *|cta,|
[Q:1/4=98] z4[Q:1/4=96] B4 |[Q:1/4=92] B6[Q:1/4=90] E2 |[Q:1/4=88] G4[Q:1/4=86] A4 | %120
w: Vir-|go be-|ne- di-|
[Q:1/4=85] B8 |] %121
w: cta.|
V:2
 z8 | E8 | B6 A2 | G2 E2 G4 | E8 | z8 | B8 | B4 B4 |[M:2/2] c8 | d8 | c4 A4 | z4 B4- | B2 A2 (A4- | %13
w: |Sub|tu- um|pre- si- di-|um,||sub|tu- um|pre-|si-|di- um|con-|* fu- gi\-|
 A2 GF G4) | A4 z4 | E4 F4 | A6 G2 | F4 F4 | E8 | z2 (B3 cdB) | c2 B2 c4 | B8 | G4 A4 | z8 | z8 | %25
w: |mus|san- cta|De- i|ge- ni-|trix,|san\- * * *|cta De- i|ge-|ni- trix,|||
 z8 | z8 | A8 | B4 B4 | E4 (A4- | A2 GF) G4 | A8 | z8 | z4 B4- | B2 A2 G2 (B2- | B2 AG) A2 A2 | %36
w: ||san-|cta De-|i ge\-|* * * ni-|trix,||san\-|* cta De- i|* * * ge- ni-|
 G8 | z4 F4 | A4 G2 F2- | F2 E2 F4- | F4 F4- | F8 | F4 z4 | D4 G4 | A8 | A4 B4 | (d6 cB) | %47
w: trix,|san-|cta De- i|* ge- ni\-|* trix:|||no- stras|de-|pre- ca-|ti\- * *|
 (c4 B3 A | G2 FE) F4- | F2 G2 (E3 F | GABc de) d2- | d2 (c3 B) (B2- | B2 A2) B4- | B4 z4 | z8 | %55
w: o\- * *|* * * nes,|* de- pre\- *|* * * * * * ca\-|* ti\- * o\-|* * nes|||
 F4 (A4- | A2 G2) (F4 | E8 | A6 GF) | G4 A4- | A4 z4 | z2 A4 A2 | (G2 E2) F4 | D2 G4 (F2- | %64
w: ne de\-|* * spi\-|||ci- as,||ne de-|spi\- * ci-|as, ne de\-|
 FE) E4 ^D2 | E4 z4 | z8 | z4 B4 | c6 A2 | B2 B2 (A3 B) | c2 (d4 c2 | d6 cB) | c4 z4 | z8 | z8 | %75
w: * * spi- ci-|as||in|ne- ces-|si- ta- ti\- *|bus no\- *||stris|||
 z2 F2 G2 E2 | (F3 G AB) c2- | c2 (B3 A) A2- | A2 ^G2 A4- | A4 z4 | z2 (A4 G2) | A8 | z8 | %83
w: in ne- ces-|si\- * * * ta\-|* ti\- * bus|* no- stris,||no\- *|stris,||
 z2 A2 B2 G2 | A6 G2 | F2 F2 E2 E2 | F4 B4 | c4 B4 | z8 | z4 B4 | c2 e4 d2 | c8 | B4 (e4 | %93
w: sed a pe-|ri- cu-|lis cun- ctis, a|pe- ri-|cu- lis,||sed|a pe- ri-|cu-|lis cun\-|
 d3 c BA A2- | A2 G2) A4 | z8 | z8 | z8 | z8 | A8 | B4 B4 | A8 | z8 | A8 | B4 B4 | c8 | %106
w: |* * ctis,|||||li-|be- ra|nos,||li-|be- ra|nos|
 (d4 A2) (d2- | d2 cB) c2 c2 | (c3 B/c/) d2 (c2- | cB) (B4 ^A2) | B8- | B8 | z8 | z4 F4- | %114
w: sem\- * per,|* * * Vir- go|et * * be- ne\-|* * di\- *|cta,|||Vir\-|
 F4 (d3 c | B2) A2 B4- | B2 A2 (G2 F2- | FE E4 ^D2) | E8- | E8 | E8 |] %121
w: * go *|* et be\-|* ne- di\- *||cta.|||
V:3
 E8 | A8 | G2 E2 G2 A2 | B8 | z8 | z8 | z8 | B8 |[M:2/2][K:treble-8] e4 c4 | (B3 A F2) (B2 | %10
w: Sub|tu-|um pre- si- di-|um||||con-|fu- gi-|mus, * * con\-|
 E2) (A3 Bcd | e2) (B2 e4 | c4 d4 | e8 | e4 c4) | z4 B4 | c4 (e4- | e2 dc) d4 | e4 c4 | B8 | z8 | %21
w: * fu\- * * *|* gi\- *|||* mus,|san-|cta De\-|* * * i|ge- ni-|trix,||
 z8 | z2 e2 e4 | f4 B4 | (e6 dc | d2 A2 e3 d/c/) | B4 c4 | z2 e2 f4 | f4 B2 (e2- | e2 dc) d4 | %30
w: |san \-cta|De- i|ge\- * *||ni- trix,|san- cta|De- i ge\-|* * * ni-|
 e6 d2 | c2 B2 A4 | (e6 d2) | =c4 B4 | z8 | z8 | e4 g4- | g2 f2 d4 | (e4 d4 | B4 c4- | c4) B4- | %41
w: trix, san-|cta De- i|ge\- *|ni- trix,|||san- cta|* De- i|ge- ni\-||* trix:|
 B4 z4 | z4 B4 | d4 e4 | f4 e4 | (e6 dc) | d4 e4- | e4 z4 | z8 | z8 | e4 f4- | f2 f2 d2 e2 | %52
w: |no-|stras de-|pre- ca-|ti\- * *|o- nes,||||no- stras|* de- pre- ca-|
 f2 f2 d4 | f4 (g4- | g2 f2) (e4 | d4 e4- | e4) (d4- | d2 cB) c4 | z2 d2 e4 | e4 (c3 d) | e4 f4- | %61
w: ti- o- nes|ne de\-|* * spi\-||* ci\-|* * * as,|ne de-|spi- ci\- *|as, ne|
 f4 f4 | (d2 B2) c4 | B4 z4 | z8 | z8 | z8 | z8 | z8 | e4 f4- | f2 d2 e2 e2 | (d3 e) f2 (g2- | %72
w: * de-|spi\- * ci-|as||||||in ne\-|* ces- si- ta-|ti\- * bus no\-|
 g2 f2 g2 e2 | defd e4) | d4 z4 | z8 | z8 | z8 | z2 e2 e2 e2 | c2 f4 e2 | f4 z4 | z2 e2 f2 d2 | %82
w: ||stris||||in ne- ces-|si- ta- ti-|bus,|sed a pe-|
 f6 f2 | f2 e2 d4 | z8 | z4 z2 e2 | e2 d2 e3 d | c2 A2 B4 | z4 z2 e2 | e2 d2 e3 d | c2 c2 B4 | A8 | %92
w: ri- cu-|lis cun- ctis,||sed|a pe- ri- cu-|lis cun- ctis,|sed|a pe- ri- cu-|lis cun- ctis,|cun-|
 B4 z4 | z8 | z2 e2 d2 c2 | e3 d c2 (e2- | ed dc/d/ e4) | c8 | z8 | c8 | e4 d4 | c8 | z8 | c8 | %104
w: ctis,||sed a pe-|ri- cu- lis cun\-||ctis,||li-|be- ra|nos,||li-|
 e4 e4 | e8 | d8 | e4 z2 c2 | f6 e2 | d4 c4 | B8- | B4 z4 | z4 e4- | e4 (d3 e | fgaf) g2 (f2- | %115
w: be- ra|nos|sem-|per, Vir-|go be-|ne- di-|cta,||Vir\-|* go *|* * * * be- ne\-|
 fe) (e4 ^d2) | e4 z2 d2 | e4 f4 | g6 e2 | e8- | e8 |] %121
w: * * di\- *|cta, Vir-|go be-|ne- di-|cta.||
V:4
 z8 | z8 | z8 | E8 | B6 c2 | d2 e4 ^d2 | e8- | e8 |[M:2/2][K:treble-8] c8 | z4 B4 | (c3 d) e4 | %11
w: |||Sub|tu- um|pre- si- di-|um|||con-|fu\- * gi-|
 E8 | z4 D4 | G4 G4 | E8- | E4 z4 | A8 | B4 B4 | E4 (e4- | e2 dc d4 | e2) e2 c4 | z4 d4 | e4 e4 | %23
w: mus,|con-|fu- gi-|mus,||san-|cta De-|i ge\-||* ni- trix,|san-|cta De-|
 A4 d4- | (d2 cB c2) A2 | A4 z4 | G4 A4 | A4 D4 | (d6 cB | c2) A2 (A4 | B8 | A8 | z8 | e6 d2 | %34
w: i ge\-|* * * * ni-|trix,|san- cta|De- i|ge\- * *|* ni- trix,||||san- cta|
 =c4 (B3 ^c | d2) e3 d/c/ d2) | (G3 A B4) | z8 | z8 | E4 A4- | A4 F4- | F2 G2 A2 B2- | %42
w: De- i *|* ge\- * * ni-|trix, * *|||no- stras|* de\-|* pre- ca- ti\-|
 B2 (A2 d3 c | B2 A2 G4) | F4 z4 | z8 | z8 | z2 A2 e4- | e2 d2 B2 d2- | d2 B2 =c4 | (B4 F4) | %51
w: * o\- * *||nes,|||no- stras|* de- pre- ca\-|* ti- o-|nes, *|
 z2 A2 G2 E2 | A2 A2 F4 | z4 B4 | (d6 c2) | B4 A4- | A4 D4 | z4 A4- | A2 A2 (B4- | B4 A3 G/F/) | %60
w: de- pre- ca-|ti- o- nes|ne|de\- *|spi- ci\-|* as,|ne|* de- spi\-||
 E4 D4- | D4 z4 | z4 z2 A2- | A2 G2 A2 F2 | G2 E2 F4 | E2 e4 d2 | (e2 B2 c2 d2- | dcBA B4) | A8 | %69
w: ci- as,||no\-|* stras de- pre-|ca- ti- o-|nes ne de-|spi\- * * *||as|
 z8 | z8 | z8 | z8 | z4 A4 | B6 G2 | A2 A2 G3 A | (Bc) (d4 cB | c2) d3 cBA | B4 A4- | A4 z4 | z8 | %81
w: ||||in|ne- ces-|si- ta- ti\- *|* * bus * *|* no\- * * *|* stris,|||
 z4 z2 A2 | B2 A2 d4- | d2 c2 B2 B2 | A4 z4 | z8 | z8 | z4 z2 d2 | d2 c2 d2 (B2- | BA) A4 G2 | %90
w: sed|a pe- ri\-|* cu- lis cun-|ctis,|||sed|a pe- ri- cu\-|* * lis cun-|
 A4 z2 B2 | c4 e4- | e2 d2 c4 | B2 (d3 cBA) | B4 (A3 B | cd e3 dcB | A4 B4) | A4 E4 | F4 G4 | E8 | %100
w: ctis, sed|a pe\-|* ri- cu-|lis cun\- * * *|ctis, cun\- *|||ctis, li-|be- ra|nos,|
 z8 | E8 | F4 G4 | E4 e4- | e2 (dc) B4 | A4 (E4 | F4 A4- | A4) A4 | z8 | z8 | G8 | F4 B4- | %112
w: |li-|be- ra|nos, li\-|* be\- * ra|nos sem\-||* per,|||Vir-|go be\-|
 B2 A2 (G2 F2- | F2 E2) F4 | z8 | z4 F4 | (G3 A BG) A2- | A2 G2 F4 | E4 z2 E2 | E2 E2 A2 A2 | %120
w: * ne- di\- *|* * cta,||Vir-|go * * * be\-|* ne- di-|cta, Vir-|go be- ne- di-|
 ^G8 |] %121
w: cta.|
V:5
 z8 | z8 | z8 | z8 | E8 | B6 A2 | G2 E2 G4 | E8 |[M:2/2][K:treble-8] z4 (e4- | e2 dc) d2 d2 | e8 | %11
w: ||||Sub|tu- um|pre- si- di-|um|con\-|* * * fu- gi-|mus,|
 z4 B4 | e4 A4 | B8 | A8- | A4 z4 | z8 | z8 | z4 A4 | B4 B4 | E4 (e4- | e2 dc d2) B2 | (B4 c4- | %23
w: con-|fu\- *|gi-|mus,||||san-|cta De-|i ge\-|* * * * ni-|trix, *|
 c4) z4 | z2 e2 e4 | f4 B4 | (e8- | e2 dc d2 c2) | B8 | A4 z2 D2 | G6 F2 | E4 e4- | e2 d2 =c2 B2- | %33
w: |san- cta|De- i|ge\-||ni-|trix, san-|cta De-|i ge\-||
 B2 A2 B2 B2 | e6 d2 | B2 c2 A4 | B4 z2 E2 | B8 | A4 B4 | G4 F4- | F4 D4 | (d6 cB | c4) B4 | %43
w: * ni- trix, san-|cta De-|i ge- ni-|trix, san-|cta|De- i|ge- ni\-|* trix:|no\- * *|* stras|
 z4 B4 | d6 d2 | (c4 B4) | B4 A4- | A4 z4 | z8 | z2 E2 A2 A2 | (G3 A B=c) (B2- | B2 A2 B4 | %52
w: de-|pre- ca-|ti\- *|o- nes,|||de- pre- ca-|ti\- * * * o\-||
 c4) (B4- | B4- E4) | z8 | z8 | z8 | z8 | z8 | z2 G2 F2 (E2 | A6 B2- | B2 A2 FGAF) | G4 F4 | %63
w: * nes|||||||ne de- spi\-|||ci- as,|
 z4 z2 B2- | B2 A2 B2 A2 | B4 c2 A2 | (B2 e4 B2 | c2 d2) e4 | e8 | z8 | z4 A4 | B6 G2 | %72
w: ne|* de- spi- ci-|as, ne de-|spi\- * *|* * ci-|as||in|ne- ces-|
 A2 A2 (G3 A | Bc) d4 c2 | (dcBA GE) (e2- | ed) d2 d2 c2 | d2 B2 A2 e2- | ed B2 c2 d2 | e4 (c3 d) | %79
w: si- ta- ti\- *|* * bus no-|stris * * * * * in|* * ne- ces- si-|ta- ti- bus no\-|* * stris, in ne-|ces- si\- *|
 e2 (d4 cB | dc) (f4 ed) | e4 d4 | z2 A2 B2 A2 | d2 e2 f2 d2 | e8 | c2 d2 d2 c2 | d2 A2 B2 B2 | %87
w: ta- ti\- * *|* * bus * *|no- stris,|sed a pe-|ri- cu- lis cun-|ctis,|sed a pe- ri-|cu- lis cun- ctis,|
 A2 e2 e2 d2 | e2 A2 B4 | c2 A2 B2 G2 | E4 z4 | z8 | z8 | z8 | E4 F2 A2- | A2 E2 G2 A2 | F4 E4- | %97
w: sed a pe- ri-|cu- lis cun\-||ctis,||||sed a pe\-|* ri- cu- lis|cun- ctis|
 E4 A4 | B4 (B4 | A8) | z8 | A8 | B4 B4 | A4 E4- | E2 F2 G4 | E4 A4- | A2 G2 F4 | E8 | z8 | z8 | %110
w: * li-|be- ra,|||li-|be- ra|nos, li\-|* be- ra|Vir\- *||go,|||
 e8 | d8 | d4 c2 B2- | B2- ^A2 B4- | B2 A2 G2 d2 | e2 c2 B4- | B4 E2 F2 | (G3 A B4) | B2 G2 G2 G2 | %119
w: Vir-|go|be- ne- di\-|* * cta,|* Vir- go be-|ne- di- cta,|* be- ne-|di\- * *|cta, Vir- go be-|
 =c4 c4 | B8 |] %121
w: ne- di-|cta.|
V:6
 z8 | z8 | z8 | z8 | z8 | B,,8 | E,6 F,2 | G,2 A,4 ^G,2 |[M:2/2] A,4 A,,4 | B,,4 B,,4 | %10
w: |||||Sub|tu- um|pre- si- di-|um, pre-|si- di-|
 A,,4 (A,4- | A,2 G,F, G,4) | A,4 F,4 | E,8 | A,,8- | A,,4 z4 | z8 | z8 | z8 | z8 | z4 A,4 | %21
w: um, con\-||fu- *|gi-|mus,||||||san-|
 B,4 B,4 | E,4 (A,4- | A,2 G,F,) G,4 | A,8 | D,4 E,4 | E,4 A,,4- | A,,4 (A,4- | A,2 G,F, G,4 | %29
w: \-cta De-|i ge\-|* * * ni-|trix,|san- cta|De- i|* ge\-||
 A,4 F,4) | E,8 | A,,8 | z4 E,4- | E,2 F,2 G,4 | A,4 (E,2 G,2- | G,2 F,E,) F,4 | E,8 | z8 | z8 | %39
w: |ni-|trix,|san-|* cta De-|i ge- *|* * * ni-|trix,|||
 z8 | z4 B,,4- | B,,4 F,4- | F,4 G,4- | G,2 F,2 E,4 | D,4 A,4- | A,4 E,4 | z8 | z8 | z8 | %49
w: |no\-|* stras|* de\-|* pre- ca-|ti- o\-|* nes,||||
 z4 z2 A,,2 | E,2 E,2 D,2 B,,2 | (F,4 G,4) | F,4 B,,4- | B,,4 z4 | (D,4 A,4) | z8 | z4 F,4 | %57
w: no-|stras de- pre- ca-|ti\- *|o- nes||ne, *||ne|
 (A,6 G,2) | F,4 E,4- | E,4 A,,4- | A,,4 z4 | z8 | z8 | z2 E,4 D,2 | E,2 C,2 (B,,A,,) A,2- | %65
w: de\- *|spi- ci\-|* as,||||ne de-|spi- ci- as, * ne|
 A,2 G,2 A,2 F,2 | E,2 E,2 (A,2 G,2) | F,4 E,4 | A,,2 (A,4 G,F,) | (G,3 F, D,E,F,G,) | %70
w: * de- spi- ci-|as, ne de\- *|spi- ci-|as, ne * *|de\- * * * * *|
 A,2 B,2 A,4 | z8 | z8 | z8 | z4 z2 E,2 | F,2 D,2 E,2 E,2 | (D,3 E, F,G,) (A,2- | A,2 G,2) F,4 | %78
w: spi- ci- as||||in|ne- ces- si- ta-|ti\- * * * bus,|* * no-|
 E,2 E,2 A,,2 A,2- | A,2 F,2 G,4 | F,2 D,2 A,2 B,2 | A,4 D,4- | D,8 | D,4 z4 | z4 E,4 | %85
w: stris, no- stris, in|* ne- ces-|si- ta- ti- bus|no- stris,|||sed|
 F,2 D,2 A,3 G, | F,2 F,2 E,4 | z8 | z2 A,2 A,2 G,2 | A,2 F,2 E,2 E,2 | A,,4 z4 | z8 | z8 | z8 | %94
w: a pe- ri- cu-|lis cun- ctis,||sed a pe-|ri- cu- lis cun-|ctis,||||
 z8 | z8 | z8 | A,,8 | D,4 E,4 | A,,8 | z8 | A,,8 | D,4 E,4 | A,,4 A,,4 | E,4 E,4 | A,,8 | D,8 | %107
w: |||li-|be- ra|nos,||li-|be- ra|nos, li-|be- ra|nos|sem-|
 A,,8 | z8 | z8 | E,8 | B,,4 G,4- | G,2 F,2 (E,2 D,2 | C,4) B,,4 | z8 | z4 B,,4 | E,6 D,2 | %117
w: per,|||vir-|go be\-|* ne- di\- *|* cta,||Vir-|go be-|
 =C,2 E,2 B,,4 | z2 E,2 E,2 E,2 | =C,4 A,,4 | E,8 |] %121
w: ne- di- cta,|Vir- go be-|ne- di-|cta.|

